X:1
T:Title
%%score { ( 1 3 ) | 2 }
L:1/8
M:4/4
K:Bb
V:1 treble nm="Grand Piano"
V:3 treble 
V:2 bass 
V:1
 z4 z2[Q:1/4=85] [Fd][Ec] | [Ec][DB][DB][DF] [DF][DB][FB][FA] | [FA]G^FG c2 dB | BAGA ecAG | %4
 [DG][DF][_D=E][DG] [=DF]2 [Fd][Ec] | [Ec][DB][DB][DF] [DF][DB][FB][FA] | %6
 [FA]G^FG [=Ec]2 [Ec][EB] | BAGA ecGA |[M:7/8] [DB][DB][EB] [EB] [DB]3 |[M:1/4] [Fd][Fd] | %10
[M:4/4] B-[DB-][DB-][DB] [Fd]2 [Fd][Fd] | c4 z4 | [Ee]cAG FFAG | DDDD D2 [Fd][Fd] | %14
 B-[DB-][DB-][DB] [Fd]2 [Fd][Fd] |[M:9/8] c3 z3 z3 |[M:4/4] BAAG Fedc |[M:7/8] B-B-B- B- B3 |] %18
V:2
 z4 z2 [B,,B,][B,,B,] | [B,,B,][B,,B,][B,,B,][B,,B,] [B,,B,][B,,B,][D,B,][D,B,] | %2
 [E,B,][E,B,][E,B,E][D,B,E] [E,G,E]2 [E,G,E][E,G,E] | %3
 [F,CE][F,CE][F,CE][F,CE] [F,A,E][F,A,E][F,CE][F,B,E] | %4
 [B,,B,][B,,B,][B,,G,][B,,=E,] [B,,F,]2 [B,,B,][B,,B,] | %5
 [B,,B,][B,,B,][B,,B,][B,,B,] [B,,B,][B,,B,][D,B,][D,B,] | %6
 [E,B,][E,B,E][E,G,E][E,G,E] [C,G,]2 [C,G,][C,C] | %7
 [F,CE][F,CE][F,CE][F,CE] [F,A,E][F,A,E][F,CE][F,CE] | %8
[M:7/8] [B,,B,][B,,F,][B,,G,] [B,,G,] [B,,F,]3 |[M:1/4] [B,,B,][B,,B,] | %10
[M:4/4] [B,,F,][B,,F,][B,,F,][B,,F,] [B,,B,]2 [B,,B,][B,,B,] | %11
 [E,G,E][E,G,][E,G,][E,G,] [C,G,]2 [C,G,][C,G,] | %12
 [F,A,][F,A,E][F,CE][F,B,E] [F,A,E][F,A,E][F,CE][F,B,E] | %13
 [B,,B,][B,,B,][B,,B,][B,,B,] [B,,B,]2 [B,,B,][B,,B,] | %14
 [B,,F,][B,,F,][B,,F,][B,,F,] [B,,B,]2 [B,,B,][B,,B,] | %15
[M:9/8] [E,G,E][E,G,][E,G,] [D,B,] [C,C]2- [C,C][C,C][C,C] | %16
[M:4/4] [F,CE][F,CE][F,CE][F,B,E] [F,A,E][F,A,F][F,A,F][F,A,F] | %17
[M:7/8] [B,,B,][B,,F,][B,,G,] [B,,G,] [B,,F,]3 |] %18
V:3
 x8 | x8 | x8 | x8 | x8 | x8 | x8 | x8 |[M:7/8] x7 |[M:1/4] x2 |[M:4/4] .D2 z2 z4 | %11
 z EEE [Ee]2 [Ee][Ee] | x8 | F6 z2 | .D2 z2 z4 |[M:9/8] z EE [Fd] [Ee]2- [Ee][EG][EG] |[M:4/4] x8 | %17
[M:7/8] DDE E D3 |] %18

